src/img/xxl-minus.svg

<svg width="56" height="56" viewBox="0 0 56 56" fill="none" xmlns="http://www.w3.org/2000/svg">
<path d="M40.2637 28.6113C40.2637 28.8574 40.168 29.0762 39.9766 29.2676C39.8125 29.4316 39.6074 29.5137 39.3613 29.5137H16.6387C16.3926 29.5137 16.1738 29.4316 15.9824 29.2676C15.8184 29.0762 15.7363 28.8574 15.7363 28.6113C15.7363 28.3926 15.8184 28.2012 15.9824 28.0371C16.1738 27.8457 16.3926 27.75 16.6387 27.75H39.3613C39.6074 27.75 39.8125 27.8457 39.9766 28.0371C40.168 28.2012 40.2637 28.3926 40.2637 28.6113Z" fill="#56504C"/>
</svg>

<svg width="56" height="56" fill="none" xmlns="http://www.w3.org/2000/svg"><path d="M40.264 28.611a.903.903 0 01-.287.657.835.835 0 01-.616.246H16.64a.98.98 0 01-.657-.246.98.98 0 01-.246-.657c0-.218.082-.41.246-.574a.903.903 0 01.657-.287h22.72a.78.78 0 01.616.287c.191.164.287.356.287.574z" fill="#56504C"/></svg>
